X:1
T:James Edward Jones
T:Recessional
%%score { ( 1 2 ) | ( 3 4 ) }
L:1/8
Q:1/4=144
M:4/2
K:F
V:1 treble 
V:2 treble 
V:3 bass 
V:4 bass 
V:1
"^Vivace" A4 A2 A2 D4 E4 | F4 B4 A8 | A4 A2 A2 d4 A4 | F4 E4 D6 A2 | A4 A4 c4 B4 | F4 G4 A6 A2 | %6
 A4 D4 F4 F4 | F4 G4 A8 |"^Unison" [DA]4 [C_EA]2 A2 d4 B4 | [GB]4 [FA]4 G4 F4 | %10
 E4 D4 ^C4"^Harmony" D4 | F4 E4 D8 | D8 D8 |] %13
V:2
 D4 D2 D2 D4 ^C4 | D4 D4 ^C8 | D4 ^C2 C2 D4 F4 | D4 ^C4 D6 =C2 | F4 F4 F4 F4 | F4 (D2 E2) F6 C2 | %6
 D4 A,4 F4 (F2 E2) | D4 D4 ^C8 | F8 [DF]8 | C8 [CE]4 [F,B,]4 | B,4 G,4 A,4 D4 | D4 ^C4 A,8 | %12
 B,8 A,8 |] %13
V:3
 F,4 F,2 F,2 A,4 G,4 | A,4 G,4 E,8 | F,4 G,4 A,4 A,4 | A,6 G,2 F,6 A,2 | C4 D4 _E4 D4 | %5
 B,4 D4 C6 A,2 | F,4 F,4 A,4 A,4 | B,4 G,4 [A,,E,]8 | A,4 A,2 A,2 [B,,D]4 B,4 | B,4 A,4 G,4 F,4 | %10
 E,4 D,4 [E,A,]4 F,4 | A,4 G,4 F,8 | G,8 ^F,8 |] %13
V:4
 D,4 D,2 D,2 F,4 E,4 | D,4 G,,4 A,,8 | D,4 E,2 E,2 F,4 D,4 | A,4 A,,4 D,6 F,2 | F,4 D,4 A,,4 B,,4 | %5
 D,4 B,,4 F,6 F,2 | D,4 D,4 D,4 C,4 | B,,4 B,,4 A,,4 G,,4 | [F,,F,]8 [F,B,]8 | E,4 F,4 C,4 D,4 | %10
 G,,4 B,,4 [A,,^C,]4 B,,4 | A,,4 A,,4 D,8 | G,,8 D,8 |] %13

